;FLAVOR:Marlin
;TIME:980
;Filament used: 0.263582m
;Layer height: 0.2
;Generated with Cura_SteamEngine 2.7.0
M190 S80
M104 S250
M109 S250
G21 ;metric values
G90 ;absolute positioning
M82 ;set extruder to absolute mode
M107 ;start with the fan off
G28 X0 Y0 ;move X/Y to min endstops
G28 Z0 ;move Z to min endstops
G1 Z15.0 F9000 ;move the platform down 15mm
G92 E0 ;zero the extruded length
G1 F200 E3 ;extrude 3mm of feed stock
G92 E0 ;zero the extruded length again
G1 F9000
;Put printing message on LCD screen
M117 Printing...
;LAYER_COUNT:16
;LAYER:0
M107
M204 S100
M205 X5 Y5
G0 F1800 X108.721 Y88.401 Z0.3
M204 S200
M205 X2 Y2
;TYPE:SKIRT
G1 F600 X109.133 Y87.951 E0.03144
G1 X109.516 Y87.6 E0.0582
G1 X110 Y87.228 E0.08966
G1 X110.441 Y86.947 E0.1166
G1 X110.983 Y86.665 E0.14808
G1 X111.464 Y86.466 E0.1749
G1 X112.045 Y86.283 E0.20628
G1 X112.551 Y86.171 E0.23299
G1 X113.158 Y86.091 E0.26453
G1 X113.68 Y86.068 E0.29145
G1 X114.289 Y86.095 E0.32286
G1 X114.804 Y86.163 E0.34963
G1 X115.398 Y86.295 E0.38098
G1 X115.886 Y86.448 E0.40733
G1 X116.45 Y86.68 E0.43875
G1 X116.918 Y86.923 E0.46592
G1 X117.433 Y87.251 E0.49738
G1 X117.845 Y87.567 E0.52413
G1 X118.295 Y87.979 E0.55557
G1 X118.646 Y88.362 E0.58234
G1 X119.018 Y88.846 E0.61379
G1 X119.299 Y89.287 E0.64073
G1 X119.581 Y89.829 E0.67221
G1 X119.78 Y90.31 E0.69903
G1 X119.963 Y90.891 E0.73042
G1 X120.075 Y91.396 E0.75707
G1 X120.155 Y92.001 E0.78851
G1 X120.181 Y92.396 E0.80891
G1 X120.171 Y100.853 E1.24465
G1 X120.125 Y101.37 E1.27139
G1 X120.018 Y101.974 E1.303
G1 X119.884 Y102.474 E1.32967
G1 X119.676 Y103.045 E1.36098
G1 X119.457 Y103.514 E1.38765
G1 X119.152 Y104.043 E1.41911
G1 X118.853 Y104.471 E1.44601
G1 X118.461 Y104.938 E1.47743
G1 X117.992 Y105.387 E1.51088
G1 X117.268 Y105.943 E1.55792
G1 X116.717 Y106.278 E1.59114
G1 X116.164 Y106.537 E1.6226
G1 X115.669 Y106.718 E1.64976
G1 X115.078 Y106.876 E1.68128
G1 X114.567 Y106.966 E1.70801
G1 X113.96 Y107.019 E1.73941
G1 X113.44 Y107.019 E1.7662
G1 X112.833 Y106.966 E1.79759
G1 X112.322 Y106.876 E1.82433
G1 X111.731 Y106.718 E1.85585
G1 X111.236 Y106.537 E1.883
G1 X110.683 Y106.278 E1.91447
G1 X110.236 Y106.02 E1.94106
G1 X109.738 Y105.671 E1.97239
G1 X109.341 Y105.337 E1.99912
G1 X108.909 Y104.905 E2.0306
G1 X108.574 Y104.506 E2.05745
G1 X108.224 Y104.006 E2.08889
G1 X107.967 Y103.561 E2.11537
G1 X107.708 Y103.008 E2.14683
G1 X107.527 Y102.511 E2.17409
G1 X107.37 Y101.922 E2.20549
G1 X107.28 Y101.413 E2.23213
G1 X107.227 Y100.806 E2.26352
G1 X107.216 Y100.535 E2.27749
G1 X107.246 Y92.078 E2.71324
G1 X107.317 Y91.442 E2.74621
G1 X107.449 Y90.848 E2.77756
G1 X107.602 Y90.36 E2.80391
G1 X107.834 Y89.796 E2.83533
G1 X108.077 Y89.328 E2.8625
G1 X108.405 Y88.813 E2.89396
G1 X108.721 Y88.401 E2.92072
M204 S100
M205 X5 Y5
G0 F1800 X109.06 Y88.711
M204 S200
M205 X2 Y2
G1 F600 X109.472 Y88.261 E2.95215
G1 X109.795 Y87.964 E2.97476
G1 X110.279 Y87.592 E3.00621
G1 X110.653 Y87.354 E3.02905
G1 X111.195 Y87.072 E3.06053
G1 X111.601 Y86.904 E3.08317
G1 X112.182 Y86.721 E3.11456
G1 X112.611 Y86.626 E3.1372
G1 X113.218 Y86.546 E3.16874
G1 X113.66 Y86.526 E3.19154
G1 X114.269 Y86.553 E3.22295
G1 X114.705 Y86.611 E3.24561
G1 X115.299 Y86.743 E3.27696
G1 X115.712 Y86.873 E3.29927
G1 X116.276 Y87.105 E3.33069
G1 X116.671 Y87.31 E3.35362
G1 X117.186 Y87.638 E3.38508
G1 X117.535 Y87.906 E3.40776
G1 X117.985 Y88.318 E3.43919
G1 X118.282 Y88.641 E3.4618
G1 X118.654 Y89.125 E3.49325
G1 X118.892 Y89.499 E3.51609
G1 X119.174 Y90.041 E3.54757
G1 X119.342 Y90.447 E3.57021
G1 X119.525 Y91.028 E3.6016
G1 X119.62 Y91.456 E3.62419
G1 X119.7 Y92.061 E3.65563
G1 X119.722 Y92.395 E3.67288
G1 X119.712 Y100.852 E4.10862
G1 X119.673 Y101.289 E4.13122
G1 X119.566 Y101.893 E4.16283
G1 X119.452 Y102.317 E4.18545
G1 X119.244 Y102.888 E4.21676
G1 X119.059 Y103.285 E4.23933
G1 X118.754 Y103.814 E4.27079
G1 X118.501 Y104.176 E4.29354
G1 X118.109 Y104.643 E4.32496
G1 X117.713 Y105.023 E4.35324
G1 X116.989 Y105.579 E4.40027
G1 X116.522 Y105.863 E4.42843
G1 X115.969 Y106.122 E4.4599
G1 X115.55 Y106.274 E4.48286
G1 X114.959 Y106.432 E4.51438
G1 X114.527 Y106.508 E4.53698
G1 X113.92 Y106.561 E4.56838
G1 X113.48 Y106.561 E4.59105
G1 X112.873 Y106.508 E4.62244
G1 X112.441 Y106.432 E4.64504
G1 X111.85 Y106.274 E4.67656
G1 X111.431 Y106.122 E4.69953
G1 X110.878 Y105.863 E4.73099
G1 X110.5 Y105.644 E4.7535
G1 X110.002 Y105.295 E4.78483
G1 X109.666 Y105.012 E4.80747
G1 X109.234 Y104.58 E4.83894
G1 X108.95 Y104.243 E4.86165
G1 X108.6 Y103.743 E4.8931
G1 X108.382 Y103.366 E4.91554
G1 X108.123 Y102.813 E4.947
G1 X107.97 Y102.392 E4.97008
G1 X107.813 Y101.803 E5.00149
G1 X107.738 Y101.373 E5.02398
G1 X107.685 Y100.766 E5.05537
G1 X107.675 Y100.537 E5.06718
G1 X107.705 Y92.08 E5.50292
G1 X107.765 Y91.541 E5.53086
G1 X107.897 Y90.947 E5.56222
G1 X108.027 Y90.534 E5.58453
G1 X108.259 Y89.97 E5.61595
G1 X108.464 Y89.575 E5.63888
G1 X108.792 Y89.06 E5.67034
G1 X109.06 Y88.711 E5.69301
M204 S100
M205 X5 Y5
G0 F1800 X109.398 Y89.021
M204 S200
M205 X2 Y2
G1 F600 X109.81 Y88.571 E5.72444
G1 X110.075 Y88.328 E5.74297
G1 X110.559 Y87.956 E5.77442
G1 X110.864 Y87.761 E5.79307
G1 X111.406 Y87.479 E5.82455
G1 X111.739 Y87.341 E5.84313
G1 X112.32 Y87.158 E5.87451
G1 X112.671 Y87.081 E5.89303
G1 X113.278 Y87.001 E5.92457
G1 X113.64 Y86.985 E5.94324
G1 X114.249 Y87.012 E5.97465
G1 X114.605 Y87.059 E5.99315
G1 X115.199 Y87.191 E6.02451
G1 X115.537 Y87.297 E6.04276
G1 X116.101 Y87.529 E6.07418
G1 X116.425 Y87.697 E6.09298
G1 X116.94 Y88.025 E6.12444
G1 X117.225 Y88.244 E6.14296
G1 X117.675 Y88.656 E6.1744
G1 X117.918 Y88.921 E6.19292
G1 X118.29 Y89.405 E6.22438
G1 X118.485 Y89.71 E6.24303
G1 X118.767 Y90.252 E6.27451
G1 X118.905 Y90.585 E6.29308
G1 X119.088 Y91.166 E6.32447
G1 X119.165 Y91.516 E6.34293
G1 X119.245 Y92.121 E6.37437
G1 X119.263 Y92.394 E6.38847
G1 X119.253 Y100.851 E6.82421
G1 X119.221 Y101.209 E6.84273
G1 X119.114 Y101.813 E6.87433
G1 X119.021 Y102.16 E6.89284
G1 X118.813 Y102.731 E6.92416
G1 X118.662 Y103.056 E6.94262
G1 X118.357 Y103.585 E6.97408
G1 X118.149 Y103.881 E6.99272
G1 X117.757 Y104.348 E7.02414
G1 X117.433 Y104.659 E7.04728
G1 X116.709 Y105.215 E7.09431
G1 X116.327 Y105.447 E7.11734
G1 X115.774 Y105.706 E7.1488
G1 X115.432 Y105.831 E7.16756
G1 X114.841 Y105.989 E7.19908
G1 X114.487 Y106.051 E7.2176
G1 X113.88 Y106.104 E7.249
G1 X113.52 Y106.104 E7.26754
G1 X112.913 Y106.051 E7.29894
G1 X112.559 Y105.989 E7.31746
G1 X111.968 Y105.831 E7.34898
G1 X111.626 Y105.706 E7.36774
G1 X111.073 Y105.447 E7.3992
G1 X110.763 Y105.268 E7.41764
G1 X110.265 Y104.919 E7.44898
G1 X109.99 Y104.688 E7.46748
G1 X109.558 Y104.256 E7.49896
G1 X109.326 Y103.98 E7.51754
G1 X108.976 Y103.48 E7.54898
G1 X108.798 Y103.171 E7.56736
G1 X108.539 Y102.618 E7.59882
G1 X108.414 Y102.274 E7.61768
G1 X108.257 Y101.685 E7.64909
G1 X108.195 Y101.333 E7.6675
G1 X108.142 Y100.726 E7.6989
G1 X108.134 Y100.539 E7.70854
G1 X108.164 Y92.082 E8.14428
G1 X108.213 Y91.641 E8.16714
G1 X108.345 Y91.047 E8.19849
G1 X108.451 Y90.709 E8.21675
G1 X108.683 Y90.145 E8.24817
G1 X108.851 Y89.821 E8.26697
G1 X109.179 Y89.306 E8.29843
G1 X109.398 Y89.021 E8.31695
M204 S100
M205 X5 Y5
G0 F1800 X109.737 Y89.331
M204 S200
M205 X2 Y2
G1 F600 X110.149 Y88.881 E8.34839
G1 X110.355 Y88.692 E8.36279
G1 X110.839 Y88.32 E8.39424
G1 X111.076 Y88.168 E8.40875
G1 X111.618 Y87.886 E8.44023
G1 X111.877 Y87.779 E8.45467
G1 X112.458 Y87.596 E8.48605
G1 X112.731 Y87.536 E8.50046
G1 X113.338 Y87.456 E8.532
G1 X113.619 Y87.444 E8.54649
G1 X114.228 Y87.471 E8.5779
G1 X114.506 Y87.507 E8.59235
G1 X115.1 Y87.639 E8.6237
G1 X115.362 Y87.722 E8.63786
G1 X115.926 Y87.954 E8.66928
G1 X116.178 Y88.085 E8.68391
G1 X116.693 Y88.413 E8.71537
G1 X116.915 Y88.583 E8.72978
G1 X117.365 Y88.995 E8.76122
G1 X117.554 Y89.201 E8.77562
G1 X117.926 Y89.685 E8.80707
G1 X118.078 Y89.922 E8.82158
G1 X118.36 Y90.464 E8.85306
G1 X118.467 Y90.723 E8.8675
G1 X118.65 Y91.304 E8.89888
G1 X118.71 Y91.576 E8.91324
G1 X118.79 Y92.181 E8.94468
G1 X118.804 Y92.394 E8.95568
G1 X118.794 Y100.851 E9.39142
G1 X118.769 Y101.129 E9.4058
G1 X118.662 Y101.733 E9.4374
G1 X118.59 Y102.003 E9.4518
G1 X118.382 Y102.574 E9.48311
G1 X118.264 Y102.827 E9.4975
G1 X117.959 Y103.356 E9.52896
G1 X117.798 Y103.586 E9.54342
G1 X117.406 Y104.053 E9.57484
G1 X117.154 Y104.295 E9.59284
G1 X116.43 Y104.851 E9.63987
G1 X116.133 Y105.031 E9.65777
G1 X115.58 Y105.29 E9.68923
G1 X115.313 Y105.387 E9.70387
G1 X114.722 Y105.545 E9.73539
G1 X114.447 Y105.594 E9.74978
G1 X113.84 Y105.647 E9.78117
G1 X113.56 Y105.647 E9.7956
G1 X112.953 Y105.594 E9.827
G1 X112.678 Y105.545 E9.84139
G1 X112.087 Y105.387 E9.87291
G1 X111.82 Y105.29 E9.88754
G1 X111.267 Y105.031 E9.91901
G1 X111.027 Y104.892 E9.9333
G1 X110.529 Y104.543 E9.96463
G1 X110.315 Y104.363 E9.97904
G1 X109.883 Y103.931 E10.01052
G1 X109.702 Y103.717 E10.02496
G1 X109.352 Y103.217 E10.0564
G1 X109.214 Y102.977 E10.07067
G1 X108.955 Y102.424 E10.10213
G1 X108.857 Y102.156 E10.11683
G1 X108.7 Y101.567 E10.14824
G1 X108.652 Y101.293 E10.16257
G1 X108.599 Y100.686 E10.19397
G1 X108.593 Y100.54 E10.2015
G1 X108.623 Y92.083 E10.63724
G1 X108.661 Y91.74 E10.65502
G1 X108.793 Y91.146 E10.68637
G1 X108.876 Y90.884 E10.70053
G1 X109.108 Y90.32 E10.73195
G1 X109.239 Y90.068 E10.74659
G1 X109.567 Y89.553 E10.77805
G1 X109.737 Y89.331 E10.79246
M204 S100
M205 X5 Y5
G0 F1800 X110.075 Y89.641
M204 S200
M205 X2 Y2
G1 F600 X110.487 Y89.191 E10.82389
G1 X110.634 Y89.056 E10.83417
G1 X111.118 Y88.684 E10.86563
G1 X111.288 Y88.576 E10.876
G1 X111.83 Y88.294 E10.90748
G1 X112.015 Y88.217 E10.91781
G1 X112.596 Y88.034 E10.94919
G1 X112.791 Y87.991 E10.95948
G1 X113.398 Y87.911 E10.99103
G1 X113.599 Y87.902 E11.00139
G1 X114.208 Y87.929 E11.0328
G1 X114.406 Y87.955 E11.04309
G1 X115 Y88.087 E11.07444
G1 X115.188 Y88.146 E11.0846
G1 X115.752 Y88.378 E11.11602
G1 X115.932 Y88.472 E11.12648
G1 X116.447 Y88.8 E11.15794
G1 X116.605 Y88.921 E11.1682
G1 X117.055 Y89.333 E11.19963
G1 X117.19 Y89.48 E11.20991
G1 X117.562 Y89.964 E11.24137
G1 X117.67 Y90.134 E11.25174
G1 X117.952 Y90.676 E11.28322
G1 X118.029 Y90.861 E11.29355
G1 X118.212 Y91.442 E11.32493
G1 X118.255 Y91.637 E11.33522
G1 X118.335 Y92.242 E11.36667
G1 X118.345 Y92.393 E11.37446
G1 X118.335 Y100.85 E11.8102
G1 X118.317 Y101.049 E11.8205
G1 X118.21 Y101.653 E11.8521
G1 X118.159 Y101.846 E11.86239
G1 X117.951 Y102.417 E11.8937
G1 X117.867 Y102.597 E11.90393
G1 X117.562 Y103.126 E11.9354
G1 X117.446 Y103.291 E11.94579
G1 X117.054 Y103.758 E11.9772
G1 X116.874 Y103.93 E11.99003
G1 X116.15 Y104.486 E12.03707
G1 X115.938 Y104.616 E12.04988
G1 X115.385 Y104.875 E12.08134
G1 X115.194 Y104.944 E12.09181
G1 X114.603 Y105.102 E12.12333
G1 X114.407 Y105.137 E12.13358
G1 X113.8 Y105.19 E12.16498
G1 X113.6 Y105.19 E12.17528
G1 X112.993 Y105.137 E12.20668
G1 X112.797 Y105.102 E12.21694
G1 X112.206 Y104.944 E12.24846
G1 X112.015 Y104.875 E12.25892
G1 X111.462 Y104.616 E12.29038
G1 X111.29 Y104.516 E12.30063
G1 X110.792 Y104.167 E12.33197
G1 X110.639 Y104.039 E12.34224
G1 X110.207 Y103.607 E12.37372
G1 X110.079 Y103.453 E12.38404
G1 X109.729 Y102.953 E12.41549
G1 X109.629 Y102.782 E12.42569
G1 X109.37 Y102.229 E12.45716
G1 X109.301 Y102.038 E12.46762
G1 X109.144 Y101.449 E12.49903
G1 X109.109 Y101.253 E12.50929
G1 X109.056 Y100.646 E12.54068
G1 X109.052 Y100.542 E12.54604
G1 X109.082 Y92.085 E12.98179
G1 X109.109 Y91.84 E12.99448
G1 X109.241 Y91.246 E13.02584
G1 X109.3 Y91.058 E13.03599
G1 X109.532 Y90.494 E13.06741
G1 X109.626 Y90.314 E13.07787
G1 X109.954 Y89.799 E13.10933
G1 X110.075 Y89.641 E13.11959
M204 S100
M205 X5 Y5
G0 F1800 X110.414 Y89.951
M204 S200
M205 X2 Y2
G1 F600 X110.826 Y89.501 E13.15102
G1 X110.914 Y89.42 E13.15719
G1 X111.398 Y89.048 E13.18864
G1 X111.5 Y88.983 E13.19487
G1 X112.042 Y88.701 E13.22635
G1 X112.153 Y88.655 E13.23254
G1 X112.734 Y88.472 E13.26393
G1 X112.851 Y88.446 E13.2701
G1 X113.458 Y88.366 E13.30165
G1 X113.579 Y88.361 E13.30789
G1 X114.188 Y88.388 E13.3393
G1 X114.306 Y88.403 E13.34542
G1 X114.9 Y88.535 E13.37678
G1 X115.013 Y88.571 E13.38289
G1 X115.577 Y88.803 E13.41431
G1 X115.685 Y88.859 E13.42058
G1 X116.2 Y89.187 E13.45204
G1 X116.295 Y89.26 E13.45821
G1 X116.745 Y89.672 E13.48965
G1 X116.826 Y89.76 E13.49581
G1 X117.198 Y90.244 E13.52726
G1 X117.263 Y90.346 E13.53349
G1 X117.545 Y90.888 E13.56497
G1 X117.591 Y90.999 E13.57116
G1 X117.774 Y91.58 E13.60255
G1 X117.8 Y91.697 E13.60872
G1 X117.88 Y92.302 E13.64017
G1 X117.886 Y92.393 E13.64487
G1 X117.876 Y100.85 E14.08061
G1 X117.865 Y100.969 E14.08676
G1 X117.758 Y101.573 E14.11837
G1 X117.727 Y101.689 E14.12456
G1 X117.519 Y102.26 E14.15587
G1 X117.469 Y102.368 E14.162
G1 X117.164 Y102.897 E14.19346
G1 X117.095 Y102.996 E14.19968
G1 X116.703 Y103.463 E14.23109
G1 X116.595 Y103.566 E14.23878
G1 X115.871 Y104.122 E14.28582
G1 X115.743 Y104.2 E14.29354
G1 X115.19 Y104.459 E14.325
G1 X115.076 Y104.501 E14.33126
G1 X114.485 Y104.659 E14.36278
G1 X114.367 Y104.679 E14.36895
G1 X113.76 Y104.732 E14.40034
G1 X113.64 Y104.732 E14.40653
G1 X113.033 Y104.679 E14.43792
G1 X112.915 Y104.659 E14.44409
G1 X112.324 Y104.501 E14.47561
G1 X112.21 Y104.459 E14.48187
G1 X111.657 Y104.2 E14.51333
G1 X111.554 Y104.14 E14.51947
G1 X111.056 Y103.791 E14.5508
G1 X110.964 Y103.714 E14.55699
G1 X110.532 Y103.282 E14.58846
G1 X110.455 Y103.19 E14.59465
G1 X110.105 Y102.69 E14.62609
G1 X110.045 Y102.587 E14.63223
G1 X109.786 Y102.034 E14.6637
G1 X109.744 Y101.919 E14.67001
G1 X109.587 Y101.33 E14.70141
G1 X109.567 Y101.213 E14.70753
G1 X109.514 Y100.606 E14.73892
G1 X109.511 Y100.544 E14.74212
G1 X109.541 Y92.087 E15.17786
G1 X109.557 Y91.94 E15.18548
G1 X109.689 Y91.346 E15.21683
G1 X109.725 Y91.233 E15.22294
G1 X109.957 Y90.669 E15.25437
G1 X110.013 Y90.561 E15.26063
G1 X110.341 Y90.046 E15.29209
G1 X110.414 Y89.951 E15.29827
M204 S100
M205 X5 Y5
G0 F1800 X110.752 Y90.261
M204 S200
M205 X2 Y2
G1 F600 X111.164 Y89.811 E15.3297
G1 X111.194 Y89.784 E15.33178
G1 X111.678 Y89.412 E15.36323
G1 X111.712 Y89.39 E15.36532
G1 X112.254 Y89.108 E15.3968
G1 X112.291 Y89.093 E15.39886
G1 X112.872 Y88.91 E15.43024
G1 X112.911 Y88.901 E15.43231
G1 X113.518 Y88.821 E15.46385
G1 X113.558 Y88.819 E15.46591
G1 X114.167 Y88.846 E15.49732
G1 X114.207 Y88.851 E15.4994
G1 X114.801 Y88.983 E15.53075
G1 X114.838 Y88.995 E15.53276
G1 X115.402 Y89.227 E15.56418
G1 X115.439 Y89.246 E15.56632
G1 X115.954 Y89.574 E15.59778
G1 X115.985 Y89.598 E15.5998
G1 X116.435 Y90.01 E15.63124
G1 X116.462 Y90.04 E15.63332
G1 X116.834 Y90.524 E15.66477
G1 X116.856 Y90.558 E15.66686
G1 X117.138 Y91.1 E15.69834
G1 X117.153 Y91.137 E15.70039
G1 X117.336 Y91.718 E15.73178
G1 X117.345 Y91.757 E15.73384
G1 X117.425 Y92.362 E15.76528
G1 X117.427 Y92.392 E15.76683
G1 X117.417 Y100.849 E16.20257
G1 X117.413 Y100.889 E16.20464
G1 X117.306 Y101.493 E16.23625
G1 X117.296 Y101.532 E16.23832
G1 X117.088 Y102.103 E16.26964
G1 X117.071 Y102.139 E16.27169
G1 X116.766 Y102.668 E16.30315
G1 X116.743 Y102.701 E16.30522
G1 X116.351 Y103.168 E16.33664
G1 X116.315 Y103.202 E16.33919
G1 X115.591 Y103.758 E16.38622
G1 X115.549 Y103.784 E16.38877
G1 X114.996 Y104.043 E16.42023
G1 X114.957 Y104.057 E16.42236
G1 X114.366 Y104.215 E16.45388
G1 X114.327 Y104.222 E16.45593
G1 X113.72 Y104.275 E16.48732
G1 X113.68 Y104.275 E16.48938
G1 X113.073 Y104.222 E16.52078
G1 X113.034 Y104.215 E16.52282
G1 X112.443 Y104.057 E16.55434
G1 X112.404 Y104.043 E16.55647
G1 X111.851 Y103.784 E16.58794
G1 X111.817 Y103.764 E16.58997
G1 X111.319 Y103.415 E16.6213
G1 X111.288 Y103.39 E16.62335
G1 X110.856 Y102.958 E16.65483
G1 X110.831 Y102.927 E16.65688
G1 X110.481 Y102.427 E16.68833
G1 X110.461 Y102.393 E16.69036
G1 X110.202 Y101.84 E16.72182
G1 X110.188 Y101.801 E16.72396
G1 X110.031 Y101.212 E16.75537
G1 X110.024 Y101.173 E16.75741
G1 X109.971 Y100.566 E16.7888
G1 X109.97 Y100.545 E16.78989
G1 X110 Y92.088 E17.22563
G1 X110.005 Y92.039 E17.22817
G1 X110.137 Y91.445 E17.25952
G1 X110.149 Y91.408 E17.26152
G1 X110.381 Y90.844 E17.29294
G1 X110.4 Y90.807 E17.29509
G1 X110.728 Y90.292 E17.32655
G1 X110.752 Y90.261 E17.32857
M204 S100
